src/assets/icons/screen.svg

<svg xmlns="http://www.w3.org/2000/svg" width="62" height="62" viewBox="0 0 62 62">
  <g fill="none" fill-rule="evenodd">
    <path fill="#000000" d="M31.0000001,61 C47.5420834,61 61,47.5420834 61,31 C61,14.4579167 47.5420834,1 31.0000001,1 C14.4579167,1 1,14.4579167 1,31 C1,47.5420834 14.4579167,61 31.0000001,61"/>
    <path fill="#FFFFFF" d="M54.25496,46.39088 C52.98024,43.78626 50.6292,41.84318 47.83052,41.07562 C48.84236,40.28016 49.49522,39.04822 49.49522,37.665 C49.49522,35.2718 47.54842,33.325 45.15522,33.325 C42.76264,33.325 40.81522,35.2718 40.81522,37.665 C40.81522,39.04822 41.4687,40.28016 42.48054,41.07562 C39.2491,41.96284 36.6234,44.42052 35.55266,47.6501 C34.2488,45.7653 33.47938,43.4837 33.47938,41.02354 C33.47938,34.58484 38.71714,29.34708 45.15522,29.34708 C51.59392,29.34708 56.8323,34.58484 56.8323,41.02354 C56.8323,41.21698 56.81246,41.40546 56.80378,41.59704 C56.10876,43.28406 55.25316,44.888 54.25496,46.39088 L54.25496,46.39088 Z M45.15522,42.005 C45.32076,42.005 45.4832,41.99384 45.64316,41.97586 C49.13624,42.16744 52.16556,44.39076 53.42354,47.57942 C52.26972,49.135 50.9578,50.5641 49.5132,51.84812 C48.16532,52.3931 46.69654,52.7 45.15522,52.7 C41.72352,52.7 38.64336,51.2027 36.50498,48.83802 C37.39096,44.99092 40.73276,42.19162 44.6679,41.97586 C44.82786,41.99384 44.9903,42.005 45.15522,42.005 L45.15522,42.005 Z M42.05522,37.665 C42.05522,35.95566 43.4465,34.565 45.15522,34.565 C46.86456,34.565 48.25522,35.95566 48.25522,37.665 C48.25522,39.25406 47.04808,40.55358 45.50552,40.72966 C45.38834,40.72594 45.27302,40.71416 45.15522,40.71416 C45.03804,40.71416 44.92272,40.72594 44.80554,40.72966 C43.26298,40.55358 42.05522,39.25406 42.05522,37.665 L42.05522,37.665 Z M28.3123,58.76794 L28.3123,19.73708 L56.51672,19.73708 C58.0444,23.18428 58.89938,26.99294 58.89938,31 C58.89938,33.63624 58.52428,36.18568 57.83794,38.60554 C56.70148,32.63618 51.45132,28.10708 45.15522,28.10708 C38.03328,28.10708 32.23938,33.9016 32.23938,41.02354 C32.23938,48.14548 38.03328,53.94 45.15522,53.94 C45.80994,53.94 46.44854,53.87552 47.0766,53.78066 C42.52828,57.00032 36.98362,58.9 31,58.9 C30.09356,58.9 29.19704,58.85288 28.3123,58.76794 L28.3123,58.76794 Z M3.1,31 C3.1,15.61594 15.61594,3.1 31,3.1 C39.24352,3.1 46.66058,6.69662 51.77248,12.4 L29.63848,12.4 C27.53978,12.4 25.8323,14.06842 25.8323,16.12 L25.8323,58.41268 C12.90964,55.98104 3.1,44.6183 3.1,31 L3.1,31 Z M39.34334,16.01646 C39.34334,16.53044 38.9267,16.94646 38.41334,16.94646 C37.89998,16.94646 37.48334,16.53044 37.48334,16.01646 C37.48334,15.50248 37.89998,15.08646 38.41334,15.08646 C38.9267,15.08646 39.34334,15.50248 39.34334,16.01646 L39.34334,16.01646 Z M49.80522,16.01646 C49.80522,16.53044 49.3892,16.94646 48.87522,16.94646 L41.43522,16.94646 C40.92186,16.94646 40.50522,16.53044 40.50522,16.01646 C40.50522,15.50248 40.92186,15.08646 41.43522,15.08646 L48.87522,15.08646 C49.3892,15.08646 49.80522,15.50248 49.80522,16.01646 L49.80522,16.01646 Z M31,0 C13.87932,0 0,13.87932 0,31 C0,48.12068 13.87932,62 31,62 C48.1213,62 61.99938,48.12068 61.99938,31 C61.99938,13.87932 48.1213,0 31,0 L31,0 Z"/>
    <path fill="#FFFFFF" d="M20.87354,25.98854 C20.5313,25.98854 20.25354,26.2663 20.25354,26.60854 L20.25354,34.04854 C20.25354,34.39078 20.5313,34.66854 20.87354,34.66854 C21.21578,34.66854 21.49354,34.39078 21.49354,34.04854 L21.49354,26.60854 C21.49354,26.2663 21.21578,25.98854 20.87354,25.98854 M15.29354,24.12854 C14.9513,24.12854 14.67354,24.4063 14.67354,24.74854 L14.67354,35.90854 C14.67354,36.25078 14.9513,36.52854 15.29354,36.52854 C15.63578,36.52854 15.91354,36.25078 15.91354,35.90854 L15.91354,24.74854 C15.91354,24.4063 15.63578,24.12854 15.29354,24.12854 M9.71354,22.26854 C9.37068,22.26854 9.09354,22.5463 9.09354,22.88854 L9.09354,37.76854 C9.09354,38.11078 9.37068,38.38854 9.71354,38.38854 C10.05578,38.38854 10.33354,38.11078 10.33354,37.76854 L10.33354,22.88854 C10.33354,22.5463 10.05578,22.26854 9.71354,22.26854 M50.42522,25.63948 C51.28144,25.63948 51.97522,24.9457 51.97522,24.08948 C51.97522,23.23388 51.28144,22.53948 50.42522,22.53948 C49.56962,22.53948 48.87522,23.23388 48.87522,24.08948 C48.87522,24.9457 49.56962,25.63948 50.42522,25.63948 M54.66168,25.63948 C55.51728,25.63948 56.21168,24.9457 56.21168,24.08948 C56.21168,23.23388 55.51728,22.53948 54.66168,22.53948 C53.80546,22.53948 53.11168,23.23388 53.11168,24.08948 C53.11168,24.9457 53.80546,25.63948 54.66168,25.63948 M32.89844,24.70948 L40.33844,24.70948 C40.68068,24.70948 40.95844,24.43234 40.95844,24.08948 C40.95844,23.74724 40.68068,23.46948 40.33844,23.46948 L32.89844,23.46948 C32.55558,23.46948 32.27844,23.74724 32.27844,24.08948 C32.27844,24.43234 32.55558,24.70948 32.89844,24.70948"/>
  </g>
</svg>

<svg xmlns="http://www.w3.org/2000/svg" width="62" height="62"><g fill="none" fill-rule="evenodd"><path fill="#000" d="M31 61c16.542 0 30-13.458 30-30S47.542 1 31 1 1 14.458 1 31s13.458 30 30 30"/><path fill="#FFF" d="M54.255 46.39a10.157 10.157 0 00-6.424-5.314 4.332 4.332 0 001.664-3.411 4.345 4.345 0 00-4.34-4.34 4.345 4.345 0 00-4.34 4.34c0 1.383.654 2.615 1.666 3.41a10.14 10.14 0 00-6.928 6.575 11.61 11.61 0 01-2.074-6.626c0-6.44 5.238-11.677 11.676-11.677 6.439 0 11.677 5.238 11.677 11.677 0 .193-.02.381-.028.573a27.812 27.812 0 01-2.549 4.794zm-9.1-4.385c.166 0 .328-.011.488-.03a8.898 8.898 0 017.78 5.604 28.153 28.153 0 01-3.91 4.27 11.596 11.596 0 01-4.358.851c-3.431 0-6.512-1.497-8.65-3.862a8.884 8.884 0 018.163-6.862c.16.018.322.029.487.029zm-3.1-4.34c0-1.71 1.392-3.1 3.1-3.1 1.71 0 3.1 1.39 3.1 3.1 0 1.59-1.207 2.889-2.75 3.065-.117-.004-.232-.016-.35-.016-.117 0-.232.012-.35.016-1.542-.176-2.75-1.476-2.75-3.065zM28.312 58.768v-39.03h28.205A27.727 27.727 0 0158.899 31c0 2.636-.375 5.186-1.061 7.606-1.137-5.97-6.387-10.499-12.683-10.499-7.122 0-12.916 5.795-12.916 12.917 0 7.121 5.794 12.916 12.916 12.916.655 0 1.294-.064 1.922-.16a27.734 27.734 0 01-18.765 4.988zM3.1 31C3.1 15.616 15.616 3.1 31 3.1c8.244 0 15.66 3.597 20.772 9.3H29.638c-2.098 0-3.806 1.668-3.806 3.72v42.293C12.91 55.98 3.1 44.618 3.1 31zm36.243-14.984a.93.93 0 11-1.86 0 .93.93 0 011.86 0zm10.462 0a.93.93 0 01-.93.93h-7.44a.93.93 0 110-1.86h7.44a.93.93 0 01.93.93zM31 0C13.88 0 0 13.88 0 31c0 17.12 13.88 31 31 31 17.121 0 31-13.88 31-31C62 13.88 48.12 0 31 0z"/><path fill="#FFF" d="M20.874 25.989a.62.62 0 00-.62.62v7.44a.62.62 0 001.24 0v-7.44a.62.62 0 00-.62-.62m-5.58-1.86a.62.62 0 00-.62.62v11.16a.62.62 0 001.24 0v-11.16a.62.62 0 00-.62-.62m-5.58-1.86a.62.62 0 00-.62.62v14.88a.62.62 0 101.24 0v-14.88a.62.62 0 00-.62-.62m40.711 3.37a1.55 1.55 0 100-3.1 1.55 1.55 0 000 3.1m4.237 0a1.55 1.55 0 100-3.1 1.55 1.55 0 000 3.1m-21.764-.93h7.44a.62.62 0 100-1.24h-7.44a.62.62 0 100 1.24"/></g></svg>
